X: 27
T:Taith i Ddenmarc
T:Trip to Denmark
M:6/8
L:1/8
Q:130
S:Cadw Twmpath Collection
R:Jig
A:Wales
Z:brian_martin12345@yahoo.com
K:G
B/c/|dBG Gge|dBG Gge|dcB dcB|ABAA2B/c/|
dBG Gge|dBG Gge|dcB cBA|GAG"Fine"G2:||
A|Bdd Add|gagf2d|Bdd Add|ge^cd3|
Bdd Add|gagf2d|Bdd Add|gfe" D.C."d2||
